platform/icons/src/expui/nodes/unknown_dark.svg

<svg width="16" height="16" viewBox="0 0 16 16" fill="none" xmlns="http://www.w3.org/2000/svg">
<path fill-rule="evenodd" clip-rule="evenodd" d="M2.94755 2.94767C3.30292 2.59231 3.78489 2.38659 4.59177 2.2781C5.41304 2.16769 6.49292 2.16663 7.99984 2.16663C9.50674 2.16663 10.5866 2.16769 11.4079 2.2781C12.2148 2.38659 12.6968 2.59231 13.0521 2.94767C13.4075 3.30303 13.6132 3.78501 13.7217 4.59189C13.8321 5.41316 13.8332 6.49305 13.8332 7.99996C13.8332 9.50686 13.8321 10.5867 13.7217 11.408C13.6132 12.2149 13.4075 12.6969 13.0521 13.0523C12.6968 13.4076 12.2148 13.6133 11.4079 13.7218C10.5866 13.8322 9.50674 13.8333 7.99984 13.8333C6.49292 13.8333 5.41303 13.8322 4.59177 13.7218C3.78489 13.6133 3.30292 13.4076 2.94756 13.0523C2.5922 12.6969 2.38646 12.2149 2.27798 11.408C2.16757 10.5867 2.1665 9.50686 2.1665 7.99996C2.1665 6.49304 2.16757 5.41316 2.27798 4.59189C2.38646 3.78501 2.59219 3.30304 2.94755 2.94767ZM8.03795 1.16663H7.96172C6.50125 1.16662 5.35413 1.16661 4.45852 1.28702C3.54075 1.41041 2.81258 1.66844 2.24044 2.24057C1.66831 2.8127 1.41029 3.54087 1.2869 4.45864C1.16649 5.35425 1.1665 6.50137 1.1665 7.96184V8.03808C1.1665 9.49853 1.16649 10.6456 1.2869 11.5413C1.41029 12.459 1.66833 13.1872 2.24045 13.7594C2.81259 14.3315 3.54075 14.5895 4.45852 14.7129C5.35413 14.8333 6.50125 14.8333 7.96172 14.8333H8.03795C9.49841 14.8333 10.6455 14.8333 11.5411 14.7129C12.4589 14.5895 13.1871 14.3315 13.7593 13.7594C14.3314 13.1872 14.5894 12.459 14.7128 11.5413C14.8332 10.6456 14.8332 9.49853 14.8332 8.03807V7.96185C14.8332 6.50138 14.8332 5.35426 14.7128 4.45865C14.5894 3.54088 14.3314 2.81269 13.7593 2.24056C13.1871 1.66843 12.4589 1.41041 11.5411 1.28702C10.6455 1.16661 9.49841 1.16662 8.03795 1.16663Z" fill="#CED0D6"/>
<path d="M2.94755 2.94767C3.30292 2.59231 3.78489 2.38659 4.59177 2.2781C5.41304 2.16769 6.49292 2.16663 7.99984 2.16663C9.50674 2.16663 10.5866 2.16769 11.4079 2.2781C12.2148 2.38659 12.6968 2.59231 13.0521 2.94767C13.4075 3.30303 13.6132 3.78501 13.7217 4.59189C13.8321 5.41316 13.8332 6.49304 13.8332 7.99996C13.8332 9.50686 13.8321 10.5867 13.7217 11.408C13.6132 12.2149 13.4075 12.6969 13.0521 13.0523C12.6968 13.4076 12.2148 13.6133 11.4079 13.7218C10.5866 13.8322 9.50674 13.8333 7.99984 13.8333C6.49292 13.8333 5.41303 13.8322 4.59177 13.7218C3.78489 13.6133 3.30292 13.4076 2.94756 13.0523C2.5922 12.6969 2.38646 12.2149 2.27798 11.408C2.16757 10.5867 2.1665 9.50686 2.1665 7.99996C2.1665 6.49304 2.16757 5.41316 2.27798 4.59189C2.38646 3.78501 2.59219 3.30304 2.94755 2.94767Z" fill="#43454A"/>
<path d="M7.32607 9.03C7.32607 8.359 7.66707 8.01 8.16607 7.575C8.53907 7.249 8.86607 6.963 8.86607 6.465C8.86607 5.971 8.53807 5.615 8.02607 5.615C7.45207 5.615 7.09907 6.016 7.10607 6.59H5.72607C5.72607 5.196 6.61907 4.38 8.04107 4.38C9.34107 4.38 10.2761 5.09 10.2711 6.37C10.2671 7.26 9.86507 7.678 9.25607 8.17C8.93207 8.432 8.61107 8.664 8.61107 9.08V9.255H7.32607V9.03ZM8.74107 11.5H7.24107V10H8.74107V11.5Z" fill="#CED0D6"/>
</svg>

<svg width="16" height="16" viewBox="0 0 16 16" xmlns="http://www.w3.org/2000/svg">
  <path fill="#43454A" stroke="#CED0D6" d="M12 2.5H4A1.5 1.5 0 0 0 2.5 4v8A1.5 1.5 0 0 0 4 13.5h8a1.5 1.5 0 0 0 1.5-1.5V4A1.5 1.5 0 0 0 12 2.5Z"/>
  <path fill="#CED0D6" d="M7.326 9.03c0-.671.341-1.02.84-1.455.373-.326.7-.612.7-1.11 0-.494-.328-.85-.84-.85-.574 0-.927.401-.92.975h-1.38c0-1.394.893-2.21 2.315-2.21 1.3 0 2.235.71 2.23 1.99-.004.89-.406 1.308-1.015 1.8-.324.262-.645.494-.645.91v.175H7.326V9.03Zm1.415 2.47h-1.5V10h1.5v1.5Z"/>
</svg>
